src/images/home-solid.svg

<svg id="Layer_1" data-name="Layer 1" xmlns="http://www.w3.org/2000/svg" viewBox="0 0 575.77 448"><defs><style>.cls-1{fill:#aebd38;}</style></defs><title>home-solid</title><path class="cls-1" d="M488,313V456a24.33,24.33,0,0,1-24,24H348a11.55,11.55,0,0,1-12-12V356a11.55,11.55,0,0,0-12-12H252a11.55,11.55,0,0,0-12,12V468a11.55,11.55,0,0,1-12,12H112a24.33,24.33,0,0,1-24-24V313c0-4,2-7,4-10L280,149a12.17,12.17,0,0,1,16,0L484,303C486,306,488,309,488,313Zm84-61-84-69V44a12.16,12.16,0,0,0-12-12H420a12.16,12.16,0,0,0-12,12v73L319,43a48,48,0,0,0-61,0L4,252c-5,4-5,12-1,17l25,31a12.44,12.44,0,0,0,17,1L280,108a12.17,12.17,0,0,1,16,0L531,301a11.51,11.51,0,0,0,17-1l25-31C577,263,577,256,572,252Z" transform="translate(-0.11 -32)"/></svg>

<svg xmlns="http://www.w3.org/2000/svg" viewBox="0 0 576 512">
  <title>House</title>
  <path d="M488 313v143c0 13-11 24-24 24H348c-7 0-12-5-12-12V356c0-7-5-12-12-12h-72c-7 0-12 5-12 12v112c0 7-5 12-12 12H112c-13 0-24-11-24-24V313c0-4 2-7 4-10l188-154c5-4 11-4 16 0l188 154c2 3 4 6 4 10zm84-61l-84-69V44c0-6-5-12-12-12h-56c-7 0-12 6-12 12v73l-89-74a48 48 0 0 0-61 0L4 252c-5 4-5 12-1 17l25 31c5 5 12 5 17 1l235-193c5-4 11-4 16 0l235 193c5 5 13 4 17-1l25-31c4-6 4-13-1-17z"/>
</svg>
